src/assets/checkbox-select-on.svg

<?xml version="1.0" encoding="UTF-8"?>
<svg width="39px" height="40px" viewBox="0 0 39 40" version="1.1" xmlns="http://www.w3.org/2000/svg" xmlns:xlink="http://www.w3.org/1999/xlink">
    <title>checkbox-select/on</title>
    <g id="Symbols" stroke="none" stroke-width="1" fill="none" fill-rule="evenodd">
        <g id="checkbox-select/on" fill="#121619" fill-rule="nonzero">
            <path d="M39,0 L39,40 L8,40 C3.581722,40 0,36.418278 0,32 L0,8 C0,3.581722 3.581722,0 8,0 L39,0 Z M26,12 L14,12 C12.9456382,12 12.0818349,12.8158778 12.0054857,13.8507377 L12,14 L12,26 C12,27.0543618 12.8158778,27.9181651 13.8507377,27.9945143 L14,28 L26,28 C27.0543618,28 27.9181651,27.1841222 27.9945143,26.1492623 L28,26 L28,14 C28,12.9456382 27.1841222,12.0818349 26.1492623,12.0054857 L26,12 Z M24.1464648,16.1483594 L24.8535547,16.8554688 C25.0488086,17.0507227 25.0488086,17.3673047 24.8535547,17.5625781 L19.1035547,23.3125977 C18.9082813,23.5078516 18.5916992,23.5078516 18.3964453,23.3125781 L15.1464453,20.0625781 C14.9511914,19.8673242 14.9511914,19.5507422 15.1464453,19.3554688 L15.8535352,18.6483594 C16.0487891,18.4530859 16.3653906,18.4530859 16.5606445,18.6483594 L18.75,20.8376953 L23.4393555,16.1483594 C23.6346094,15.9531055 23.9512109,15.9531055 24.1464648,16.1483594 Z"></path>
        </g>
    </g>
</svg>

<svg width="39" height="40" viewBox="0 0 39 40" xmlns="http://www.w3.org/2000/svg">
    <path d="M39 0v40H8a8 8 0 0 1-8-8V8a8 8 0 0 1 8-8h31zM26 12H14a2 2 0 0 0-1.995 1.85L12 14v12a2 2 0 0 0 1.85 1.995L14 28h12a2 2 0 0 0 1.995-1.85L28 26V14a2 2 0 0 0-1.85-1.995L26 12zm-1.854 4.148.708.707a.5.5 0 0 1 0 .708l-5.75 5.75a.5.5 0 0 1-.708 0l-3.25-3.25a.5.5 0 0 1 0-.708l.708-.707a.5.5 0 0 1 .707 0l2.189 2.19 4.69-4.69a.5.5 0 0 1 .706 0z" fill="#A2A9B0" fill-rule="evenodd"/>
</svg>
